X:64    
T:Reel de Sherbrooke
O:Qu\'ebec
R:reel
Q:1/4=200 
M:4/4  
L:1/8 
K:D 
Ad | f2 fg fe dB | A2 FA DF Ad | B2 GB DG Bd |
AA FA DF Ad | fd fg fe dB | A2 FA DF Ad | BG Bd cA ce |
df ec d2 :| ag | ff df Ad fd | a2 gf ga gf |
ee ce Ac eg | bb Bb aa ag | ff df Ad fd | a2 gf ga gf |
ee ce Ac eg | fd ec d2 :|
